Obsidian-SemiLight/actions/24s/office-chart-pie.svg

<svg viewBox="0 0 24 24" xmlns="http://www.w3.org/2000/svg"><path d="m12 4c-4.432 0-8 3.568-8 8s3.568 8 8 8 8-3.568 8-8-3.568-8-8-8zm0 1v7l7-.007812v.007812c0 3.878-3.122 7-7 7s-7-3.122-7-7 3.122-7 7-7z" fill="#4d4d4d"/></svg>

<svg xmlns="http://www.w3.org/2000/svg" viewBox="0 0 24 24">
  <defs id="defs3051">
    <style type="text/css" id="current-color-scheme">
      .ColorScheme-Text {
        color:#4d4d4d;
      }
      </style>
  </defs>
 <path style="fill:currentColor;fill-opacity:1;stroke:none" 
     d="M 12 4 C 7.568 4 4 7.568 4 12 C 4 16.432 7.568 20 12 20 C 16.432 20 20 16.432 20 12 C 20 7.568 16.432 4 12 4 z M 12 5 L 12 12 L 19 11.992188 L 19 12 C 19 15.878 15.878 19 12 19 C 8.122 19 5 15.878 5 12 C 5 8.122 8.122 5 12 5 z "
     class="ColorScheme-Text"
     />
</svg>
